src/data/assets/accept-donations.svg

<svg width="329" height="261" viewBox="0 0 329 261" fill="none" xmlns="http://www.w3.org/2000/svg">
<path d="M163.556 166.836C166.554 166.836 169.551 165.798 171.973 164.069C176.7 160.61 185.001 155.192 190.881 154.961C197.106 154.961 202.41 158.766 204.601 164.069C205.869 166.951 207.483 169.718 209.443 172.024C211.288 174.1 213.709 175.598 216.36 176.405L219.589 177.328C222.24 178.02 222.932 181.709 220.511 183.208C220.511 183.208 220.396 183.208 220.396 183.323C193.994 192.201 167.015 202.577 156.984 202.577C144.879 202.577 134.618 195.198 101.528 178.135C98.8766 176.751 97.6084 173.638 98.5307 170.756C99.4531 167.874 102.335 166.144 105.333 166.721C106.947 166.721 108.677 166.951 110.175 167.528L127.008 173.062C128.853 173.638 130.352 174.791 131.274 176.405C133.234 179.634 137.039 185.052 144.763 185.052H166.554C168.168 185.052 169.667 183.784 169.782 182.17C169.897 180.441 168.514 179.057 166.784 179.057H143.149C140.267 179.057 137.615 177.097 137.039 174.33C136.232 170.526 139.229 167.182 142.919 167.182L163.556 166.836Z" fill="white"/>
<path d="M152.373 89.2437C152.142 88.7825 151.681 88.4366 151.104 88.3213C150.528 88.206 149.951 88.4366 149.605 88.7825L149.26 89.1284C149.144 89.2437 149.029 89.2437 149.029 89.1284L148.683 88.7825C147.991 88.0907 146.954 88.0907 146.262 88.7825C145.57 89.4743 145.57 90.5119 146.262 91.2037L148.798 93.8554C148.914 93.9707 149.029 93.9707 149.144 93.9707C149.26 93.9707 149.375 93.9707 149.49 93.8554L152.027 91.2037C152.603 90.7425 152.718 89.9354 152.373 89.2437Z" fill="white"/>
<path d="M167.592 103.425C167.361 103.079 167.015 102.733 166.554 102.733C166.093 102.618 165.632 102.848 165.286 103.079L165.055 103.309C164.94 103.425 164.94 103.425 164.825 103.309L164.594 103.079C164.018 102.502 163.095 102.502 162.519 103.079C161.942 103.655 161.942 104.462 162.519 105.039L164.594 107.114C164.709 107.229 164.825 107.229 164.94 107.229C165.055 107.229 165.171 107.229 165.286 107.114L167.361 105.039C167.707 104.578 167.822 104.001 167.592 103.425Z" fill="white"/>
<path d="M139.806 100.888C139.575 100.542 139.23 100.196 138.768 100.196C138.307 100.081 137.846 100.312 137.5 100.542L137.27 100.773C137.154 100.888 137.154 100.888 137.039 100.773L136.808 100.542C136.232 99.9657 135.31 99.9657 134.733 100.542C134.157 101.119 134.157 101.926 134.733 102.502L136.808 104.577C136.924 104.693 137.039 104.693 137.154 104.693C137.27 104.693 137.385 104.693 137.5 104.577L139.575 102.502C140.037 102.041 140.152 101.349 139.806 100.888Z" fill="white"/>
<path d="M165.516 76.216C165.17 75.5242 164.479 75.0631 163.672 74.9478C162.865 74.8325 162.057 75.0631 161.481 75.6395L161.02 76.1007C160.905 76.216 160.674 76.216 160.559 76.1007L160.098 75.6395C159.06 74.7172 157.446 74.7172 156.408 75.6395C155.37 76.5619 155.37 78.0607 156.408 78.983L160.213 82.6724C160.328 82.7877 160.559 82.903 160.789 82.903C161.02 82.903 161.135 82.7877 161.366 82.6724L165.17 78.983C165.747 78.2913 165.977 77.1383 165.516 76.216Z" fill="white"/>
<path d="M151.219 59.1522C150.528 57.884 149.259 56.9616 147.645 56.731C146.147 56.5005 144.532 56.9616 143.495 57.9993L142.572 58.9216C142.342 59.1522 141.996 59.1522 141.765 58.9216L140.843 57.9993C138.998 56.2699 135.885 56.2699 134.041 57.9993C132.196 59.7287 132.196 62.611 134.041 64.3404L141.189 71.258C141.42 71.4886 141.765 71.6039 142.227 71.6039C142.688 71.6039 142.918 71.4886 143.264 71.258L150.412 64.3404C151.796 62.9569 152.142 60.8816 151.219 59.1522Z" fill="white"/>
<path fill-rule="evenodd" clip-rule="evenodd" d="M162.634 120.142L170.935 134.669C171.512 135.707 171.512 136.975 170.935 138.013L162.634 152.54C162.058 153.577 160.905 154.154 159.752 154.154H143.149C141.997 154.154 140.844 153.577 140.267 152.54L131.966 138.013C131.39 136.975 131.39 135.707 131.966 134.669L140.267 120.142C140.844 119.105 141.997 118.528 143.149 118.528H159.752C160.905 118.528 162.058 119.105 162.634 120.142Z" fill="white"/>
</svg>

<svg xmlns="http://www.w3.org/2000/svg" width="329" height="261" fill="none" viewBox="0 0 329 261"><path fill="currentColor" d="M163.556 166.836c2.998 0 5.995-1.038 8.417-2.767 4.727-3.459 13.028-8.877 18.908-9.108 6.225 0 11.529 3.805 13.72 9.108 1.268 2.882 2.882 5.649 4.842 7.955 1.845 2.076 4.266 3.574 6.917 4.381l3.229.923c2.651.692 3.343 4.381.922 5.88 0 0-.115 0-.115.115-26.402 8.878-53.381 19.254-63.412 19.254-12.105 0-22.366-7.379-55.456-24.442-2.651-1.384-3.92-4.497-2.997-7.379a5.925 5.925 0 0 1 6.802-4.035c1.614 0 3.344.23 4.842.807l16.833 5.534c1.845.576 3.344 1.729 4.266 3.343 1.96 3.229 5.765 8.647 13.489 8.647h21.791c1.614 0 3.113-1.268 3.228-2.882.115-1.729-1.268-3.113-2.998-3.113h-23.635c-2.882 0-5.534-1.96-6.11-4.727-.807-3.804 2.19-7.148 5.88-7.148zm-11.183-77.592c-.231-.462-.692-.807-1.269-.923a1.7 1.7 0 0 0-1.499.462l-.345.345c-.116.116-.231.116-.231 0l-.346-.346c-.692-.691-1.729-.691-2.421 0-.692.692-.692 1.73 0 2.422l2.536 2.651c.116.116.231.116.346.116.116 0 .231 0 .346-.116l2.537-2.651c.576-.461.691-1.269.346-1.96m15.219 14.181c-.231-.346-.577-.692-1.038-.692-.461-.115-.922.115-1.268.346l-.231.23c-.115.116-.115.116-.23 0l-.231-.23a1.46 1.46 0 0 0-2.075 0c-.577.576-.577 1.383 0 1.96l2.075 2.075c.115.115.231.115.346.115s.231 0 .346-.115l2.075-2.075c.346-.461.461-1.038.231-1.614m-27.786-2.537c-.231-.346-.576-.692-1.038-.692-.461-.115-.922.116-1.268.346l-.23.231c-.116.115-.116.115-.231 0l-.231-.231a1.46 1.46 0 0 0-2.075 0c-.576.577-.576 1.384 0 1.96l2.075 2.075c.116.116.231.116.346.116.116 0 .231 0 .346-.116l2.075-2.075c.462-.461.577-1.153.231-1.614m25.71-24.672c-.346-.692-1.037-1.153-1.844-1.268s-1.615.115-2.191.692l-.461.46a.35.35 0 0 1-.461 0l-.461-.46a2.806 2.806 0 0 0-3.69 0c-1.038.922-1.038 2.42 0 3.343l3.805 3.69a.88.88 0 0 0 .576.23c.231 0 .346-.115.577-.23l3.804-3.69c.577-.692.807-1.845.346-2.767m-14.297-17.064c-.691-1.268-1.96-2.19-3.574-2.421-1.498-.23-3.113.23-4.15 1.268l-.923.923a.557.557 0 0 1-.807 0l-.922-.923c-1.845-1.73-4.958-1.73-6.802 0a4.324 4.324 0 0 0 0 6.341l7.148 6.918q.346.346 1.038.346c.461 0 .691-.115 1.037-.346l7.148-6.918c1.384-1.383 1.73-3.458.807-5.188"/><path fill="currentColor" fill-rule="evenodd" d="m162.634 120.142 8.301 14.527a3.45 3.45 0 0 1 0 3.344l-8.301 14.527c-.576 1.037-1.729 1.614-2.882 1.614h-16.603c-1.152 0-2.305-.577-2.882-1.614l-8.301-14.527a3.45 3.45 0 0 1 0-3.344l8.301-14.527c.577-1.037 1.73-1.614 2.882-1.614h16.603c1.153 0 2.306.577 2.882 1.614" clip-rule="evenodd"/></svg>
